svgs/solid/ramp-loading.svg

<svg xmlns="http://www.w3.org/2000/svg" viewBox="0 0 384 512"><!-- Font Awesome Pro 6.0.0-alpha2 by @fontawesome - https://fontawesome.com License - https://fontawesome.com/license (Commercial License) --><path d="M288 320H96L11.572 488.857C6.256 499.49 13.988 512 25.875 512H358.125C370.014 512 377.746 499.49 372.43 488.857L288 320ZM352 0H32C14.25 0 0 14.25 0 32V352C0 368.5 12.625 381.5 28.625 383.25L63 314.5C63.25 313.875 63.75 313.5 64 313V64H320V313C320.25 313.5 320.75 314 321 314.5L355.375 383.25C371.375 381.5 384 368.375 384 352V32C384 14.25 369.75 0 352 0Z"/></svg>

<svg xmlns="http://www.w3.org/2000/svg" viewBox="0 0 384 512"><!-- Font Awesome Pro 5.15.1 by @fontawesome - https://fontawesome.com License - https://fontawesome.com/license (Commercial License) --><path d="M292.4 328.8c-2.7-5.4-8.2-8.8-14.3-8.8H105.9c-6.1 0-11.6 3.4-14.3 8.8l-80 160C6.3 499.5 14 512 25.9 512h332.2c11.9 0 19.6-12.5 14.3-23.2l-80-160zM352 0H32C14.3 0 0 14.3 0 32v320c0 16.5 12.6 29.5 28.6 31.3L63 314.5c.3-.6.7-1 1-1.5V64h256v249c.3.5.8 1 1 1.5l34.4 68.8c16-1.8 28.6-14.9 28.6-31.3V32c0-17.7-14.3-32-32-32z"/></svg>
